X:787
T:Hambo på logen
C:Karl Salomonsson, text Anna Fina Wahlin
R:Hambo
O:Halland
M:3/4
L:1/8
K:G
V:1
|: D2 D>E D>C | B,2 D>G B2 | G2 G>A G>E | G2 F4 | D2 D>F E>F |
D2 F<A d2 | d2 d>e d>c | c2 B4 | D2 D>E D>C | B,2 D<G B2 |
G2 G>A G>F | F2 E4 | c2 c>B A>c | B2 B>A G>B | A2 A>F D>F | G2 G4 :|
|: B>c d2 dB | GA B4 | G>A B2 A>G | G2 F4 |
w:Stem fi-o-len du spel-man glad och sätt far-ten på strå-ken
A>B c2 c>B | AG F4 | F>G F2 E>F | E2 D3 D |
w:Här är vän-nen och här är jag Vi ska dan-sa som hog-en. Det
B,>C D2 DC |B,D G3 G | F>G A2 A2 | G2 A2 B2 | 
w:sprit-tar gläd-je från topp till tå och det vär-mer i blo-gen. Men
c>d e2 c>c | B>c d2 B2 | A>B c>A F>A | G2 G4 :|
w:ing-en-ting går väl upp än-då e-mot en ham-bo på-å lo-gen
V:2
|: B,2 B,>C B,>A, | G,2 B,>D G>D | B,2 B,>C B,>G, | A,2 D4 | F2 F>D ^C>D |
F2 A<G F2 | F2 F>G F>E | E2 D4 | B,2 B,>C B,>A, | G,2 B,>D G>D |
B,2 B,>C B,>A, | A,2 C4 | E2 E>D E>A | G2 G>F G>D | C2 C>D C>A, | B,2 B,4 :|
|: G>A B2 BG | DA G3 D | B,>D G2 D>B, | B,2 A,4 |
F>G A2 AG | FE D4 | D>E D2 C>A, | G,2 B,4 | 
G,>A, B,2 B,A |GC B,4 | D>E F>D C2 | B,2 C2 D2 | E>F G2 G2 | G>A B2 G2 |
F>G A>F D>C | B,2 B,4 :|
(:musicend:)

Karl Salomonssons vän och gamla barndomskamrat Anna-Fina Wahlin skrev text till denna melodi är Karl, byggd på beskrivningen av hur det gick till när Karl träffade sin hustru.

Text av Anna-Fina Wahlin, förmedlad av Leopold Wallin i oktober 2011

->Så minns jag stättan vid skogens bryn, där som jag först dej mötte,
->och gammellogen nere i byn, den som vi i dansen nötte,
->sen ifrån dansen vi smögo oss ut, mångubben åt oss myste,
->ja där som vi stod vid ladgårdens knut, och där som jag först dej kysste

->|: Du var så ung, du var så rar, och inte i hela trakten,
->fanns det någon som dansa som du, och säker att hålla takten,
->och flink det var du med räfsa på äng, och din pall och din stäva,
->och du var ju piga och jag var dräng, och jämt fick vi gno och sträva :| 

->Jag det var ju då när jag dej fann, och vi börja sammanvandra,
->och nu är ja ej så särdeles grann, och du är ju mest lik andra,
->livet är ju ingen dans på rosor minsann, men om man blott är trägen,
->och drar man jämnt så gott som man kan, ja då brukar det gå vägen

->|: Så stäm fiolen du spelman gla, och sätt fart uppå stråken,
->för här är vännen och här är jag, och vi ska dansa som håken,
->nu spritter glädjen från topp till tå, och det värmer i bloden,
->för ingenting går väl upp ändå, mot en hambo på logen :|

Kategori [[!andrastämma]].

(:music:)
